assets/img/bg/bannerSection.svg

<svg width="1880" height="203" viewBox="0 0 1880 203" fill="none" xmlns="http://www.w3.org/2000/svg">
<g clip-path="url(#clip0_20_1613)">
<path d="M0.000781253 0C6.10078 7.9 11.9008 16 18.3008 23.6C34.6008 43 53.6008 59.4 74.3008 73.8C123.701 108.2 178.701 129.6 236.801 143.6C269.601 151.5 302.801 156.5 336.301 160C380.301 164.6 424.401 164.7 468.501 163.5C495.101 162.8 521.601 160.1 548.101 158C575.001 155.8 601.801 153.3 628.601 150.7C653.901 148.3 679.301 145.6 704.601 143.1C729.301 140.6 753.901 138.3 778.601 135.7C806.201 132.9 833.901 129.9 861.501 127.1C883.001 124.9 904.601 122.8 926.101 120.9C948.801 118.8 971.501 116.8 994.201 115.1C1010.8 113.8 1027.4 112.5 1044 112C1069.1 111.2 1094.3 110.7 1119.4 110.9C1175.9 111.4 1231 120 1284.9 137.6C1341.5 156.1 1399.3 170 1458.1 179.5C1487.3 184.2 1516.8 187.4 1546.2 190.9C1577.9 194.6 1609.7 194.8 1641.5 193.6C1685.8 191.9 1729.4 185.5 1770.9 168.9C1815.3 151.1 1850.6 122.9 1871.5 78.8C1874.4 72.6 1876.9 66.3 1879.6 60C1879.6 107.7 1879.6 155.3 1879.6 203C1253 203 626.401 203 -0.199219 203C0.000781253 135.3 0.000781253 67.6 0.000781253 0Z" fill="white"/>
</g>
<defs>
<clipPath id="clip0_20_1613">
<rect width="1879.8" height="203" fill="white"/>
</clipPath>
</defs>
</svg>

<?xml version="1.0" encoding="utf-8"?>
<!-- Generator: Adobe Illustrator 18.0.0, SVG Export Plug-In . SVG Version: 6.00 Build 0)  -->
<!DOCTYPE svg PUBLIC "-//W3C//DTD SVG 1.1//EN" "http://www.w3.org/Graphics/SVG/1.1/DTD/svg11.dtd">
<svg version="1.1" id="Layer_1" xmlns="http://www.w3.org/2000/svg" xmlns:xlink="http://www.w3.org/1999/xlink" x="0px" y="0px"
	 viewBox="0 0 1879.8 203" enable-background="new 0 0 1879.8 203" xml:space="preserve">
<path fill="#F6F4FE" d="M0,0c6.1,7.9,11.9,16,18.3,23.6C34.6,43,53.6,59.4,74.3,73.8c49.4,34.4,104.4,55.8,162.5,69.8
	c32.8,7.9,66,12.9,99.5,16.4c44,4.6,88.1,4.7,132.2,3.5c26.6-0.7,53.1-3.4,79.6-5.5c26.9-2.2,53.7-4.7,80.5-7.3
	c25.3-2.4,50.7-5.1,76-7.6c24.7-2.5,49.3-4.8,74-7.4c27.6-2.8,55.3-5.8,82.9-8.6c21.5-2.2,43.1-4.3,64.6-6.2
	c22.7-2.1,45.4-4.1,68.1-5.8c16.6-1.3,33.2-2.6,49.8-3.1c25.1-0.8,50.3-1.3,75.4-1.1c56.5,0.5,111.6,9.1,165.5,26.7
	c56.6,18.5,114.4,32.4,173.2,41.9c29.2,4.7,58.7,7.9,88.1,11.4c31.7,3.7,63.5,3.9,95.3,2.7c44.3-1.7,87.9-8.1,129.4-24.7
	c44.4-17.8,79.7-46,100.6-90.1c2.9-6.2,5.4-12.5,8.1-18.8c0,47.7,0,95.3,0,143c-626.6,0-1253.2,0-1879.8,0C0,135.3,0,67.6,0,0z"/>
</svg>
